X: 9858
T: Dermie Diamond's
R: reel
M: 4/4
K: Bminor
|:B2 B>A F>AA>B|d2 f>d e>dc>A|B2 B>A F>AA>f|1 a>f (3efe d2 c2:|2 a>f (3efe d2 d2||
f>aa>f g>ab>g|a>fd>f e>dB>d|f>aa>f g>ab>g|a>f (3efe d2 d2|
f>aa>f g>ab>g|a>Ad>f e>dc>A|B2 B>A F>AA>f|a>f (3efe d2 c2||

